src/assets/cards/0S.svg

<svg clip-rule="evenodd" fill-rule="evenodd" stroke-linejoin="round" stroke-miterlimit="2" viewBox="0 0 934 1300" xmlns="http://www.w3.org/2000/svg"><g fill-rule="nonzero"><path d="m886.966 1110.67h12.962v131.278h-12.962z"/><path d="m848.547 1241.95c12.481 0 22.517-11.2 22.517-25.1v-81.08c0-13.9-10.036-25.11-22.517-25.11h-7.263c-12.482 0-22.53 11.21-22.53 25.11v81.08c0 13.9 10.048 25.1 22.53 25.1zm-3.751-12.42c-7.363 0-13.297-5.57-13.297-12.5v-82.18c0-6.94 5.934-12.52 13.297-12.52 7.376 0 13.297 5.58 13.297 12.52v82.18c0 6.93-5.921 12.5-13.297 12.5z"/><path d="m33.365 58.049h12.962v131.278h-12.962z"/><path d="m84.738 58.049c-12.475 0-22.503 11.198-22.503 25.095v81.091c0 13.904 10.028 25.095 22.503 25.095h7.271c12.475 0 22.522-11.191 22.522-25.095v-81.091c0-13.897-10.047-25.095-22.522-25.095zm3.756 12.412c7.366 0 13.297 5.57 13.297 12.506v82.178c0 6.936-5.931 12.526-13.297 12.526-7.373 0-13.297-5.59-13.297-12.526v-82.178c0-6.936 5.924-12.506 13.297-12.506z"/><path d="m222.15 285.895c.042-8.442-6.625-8.6-6.541-2.442-.584 30.955-26.75 46.196-45.75 42.58-29.334-5.575-38.667-34.675-38.417-51.813.875-52.904 54.125-91.912 102.167-159.729 35.208 61.212 93.333 109.292 96.791 156.608 4.542 62.909-75.041 86.371-86.416 13.05-.75-5.179-6.834-7.504-6.375-.271 1.75 20.096-.709 28.467 21.958 78h-59.25c13.125-23.145 20.917-51.562 21.833-75.983z"/><path d="m454.275 421.999c.084-8.437-6.625-8.6-6.541-2.437-.542 30.95-26.709 46.191-45.75 42.575-29.292-5.571-38.667-34.675-38.375-51.813.833-52.9 54.125-91.912 102.166-159.729 35.209 61.213 93.334 109.292 96.75 156.608 4.584 62.909-75.041 86.375-86.416 13.055-.709-5.18-6.834-7.505-6.334-.271 1.709 20.091-.75 28.462 21.917 77.996h-59.25c13.125-23.146 20.958-51.559 21.833-75.984z"/><path d="m686.859 285.895c.041-8.442-6.625-8.6-6.542-2.442-.583 30.955-26.75 46.196-45.75 42.58-29.333-5.575-38.667-34.675-38.417-51.813.875-52.904 54.125-91.912 102.167-159.729 35.25 61.212 93.333 109.292 96.792 156.608 4.583 62.909-75.042 86.371-86.417 13.05-.708-5.179-6.833-7.504-6.375-.271 1.75 20.096-.708 28.467 21.958 78h-59.25c13.125-23.145 20.917-51.562 21.834-75.983z"/><path d="m686.859 558.108c.041-8.442-6.625-8.605-6.542-2.442-.583 30.95-26.75 46.192-45.75 42.579-29.333-5.575-38.667-34.679-38.417-51.817.875-52.9 54.125-91.908 102.167-159.725 35.25 61.209 93.333 109.288 96.792 156.605 4.583 62.908-75.042 86.375-86.417 13.054-.708-5.179-6.833-7.504-6.375-.271 1.75 20.096-.708 28.462 21.958 77.996h-59.25c13.125-23.142 20.917-51.559 21.834-75.979z"/><path d="m222.15 558.108c.042-8.442-6.625-8.605-6.541-2.442-.584 30.95-26.75 46.192-45.75 42.579-29.334-5.575-38.667-34.679-38.417-51.817.875-52.9 54.125-91.908 102.167-159.725 35.208 61.209 93.333 109.288 96.791 156.605 4.542 62.908-75.041 86.375-86.416 13.054-.75-5.179-6.834-7.504-6.375-.271 1.75 20.096-.709 28.462 21.958 77.996h-59.25c13.125-23.142 20.917-51.559 21.833-75.979z"/><path d="m686.9 741.999c.042 8.442-6.625 8.6-6.541 2.442-.542-30.954-26.75-46.196-45.75-42.579-29.334 5.575-38.667 34.675-38.417 51.812.875 52.904 54.125 91.913 102.167 159.729 35.25-61.212 93.333-109.291 96.791-156.608 4.584-62.908-75.041-86.371-86.416-13.05-.709 5.179-6.834 7.504-6.375.271 1.75-20.096-.709-28.467 21.958-78h-59.25c13.125 23.146 20.917 51.562 21.833 75.983z"/><path d="m686.9 1014.21c.042 8.44-6.625 8.6-6.541 2.44-.542-30.951-26.75-46.192-45.75-42.576-29.334 5.571-38.667 34.676-38.417 51.816.875 52.9 54.125 91.91 102.167 159.73 35.25-61.22 93.333-109.3 96.791-156.61 4.584-62.911-75.041-86.377-86.416-13.06-.709 5.18-6.834 7.51-6.375.27 1.75-20.087-.709-28.458 21.958-77.992h-59.25c13.125 23.146 20.917 51.559 21.833 75.982z"/><path d="m456.275 878.103c.084 8.442-6.625 8.605-6.541 2.442-.542-30.954-26.75-46.192-45.75-42.579-29.334 5.575-38.667 34.675-38.375 51.817.833 52.9 54.083 91.908 102.166 159.727 35.209-61.211 93.292-109.29 96.75-156.607 4.584-62.908-75.041-86.375-86.416-13.054-.709 5.179-6.834 7.504-6.334.271 1.709-20.096-.75-28.462 21.917-78h-59.25c13.125 23.146 20.958 51.563 21.833 75.983z"/><path d="m222.192 741.999c.042 8.442-6.625 8.6-6.542 2.442-.583-30.954-26.75-46.196-45.75-42.579-29.333 5.575-38.666 34.675-38.416 51.812.875 52.904 54.125 91.913 102.166 159.729 35.209-61.212 93.334-109.291 96.792-156.608 4.542-62.908-75.042-86.371-86.417-13.05-.75 5.179-6.833 7.504-6.375.271 1.75-20.096-.708-28.467 21.959-78h-59.25c13.125 23.146 20.916 51.562 21.833 75.983z"/><path d="m222.192 1014.21c.042 8.44-6.625 8.6-6.542 2.44-.583-30.951-26.75-46.192-45.75-42.576-29.333 5.571-38.666 34.676-38.416 51.816.875 52.9 54.125 91.91 102.166 159.73 35.209-61.22 93.334-109.3 96.792-156.61 4.542-62.911-75.042-86.377-86.417-13.06-.75 5.18-6.833 7.51-6.375.27 1.75-20.087-.708-28.458 21.959-77.992h-59.25c13.125 23.146 20.916 51.559 21.833 75.982z"/><path d="m71.525 291.52c.042-3.633-3.75-1.937-4.25-.796-4.833 8.275-11.916 10.2-18.958 7.217-6.917-2.954-10.833-9.5-10.208-18.842 1.291-14.325 12.666-30 18.125-38.858 5.25-8.042 10.958-17.592 17-29.808 7.083 14.012 10.666 18 18.375 30.795 6.75 11.267 16.208 22.305 16.916 35.925 0 10.355-4.333 20.134-14.166 21.917-5.542 1.008-10.709-1.842-14.584-8.487-1.166-1.696-3.541-.813-3.5 1.508.709 8.721 4 16.596 11.792 25.883h-28.708c5.875-6.566 11.875-15.433 12.166-26.454z"/><path d="m858.234 1011.29c.041 3.63-3.709 1.94-4.209.79-4.875-8.27-11.958-10.19-18.958-7.21-6.958 2.95-10.875 9.5-10.208 18.84 1.291 14.33 12.625 30 18.125 38.86 5.208 8.04 10.958 17.59 17 29.81 7.041-14.01 10.666-18 18.333-30.8 6.792-11.27 16.208-22.3 16.958-35.93 0-10.35-4.375-20.13-14.166-21.91-5.542-1.01-10.75 1.84-14.584 8.49-1.208 1.69-3.541.81-3.5-1.51.667-8.72 3.959-16.596 11.792-25.883h-28.708c5.875 6.566 11.875 15.433 12.125 26.453z"/></g></svg>

<?xml version="1.0" encoding="UTF-8" standalone="no"?>
<!DOCTYPE svg PUBLIC "-//W3C//DTD SVG 1.1//EN" "http://www.w3.org/Graphics/SVG/1.1/DTD/svg11.dtd">
<svg width="100%" height="100%" viewBox="0 0 934 1300" version="1.1" xmlns="http://www.w3.org/2000/svg" xmlns:xlink="http://www.w3.org/1999/xlink" xml:space="preserve" xmlns:serif="http://www.serif.com/" style="fill-rule:evenodd;clip-rule:evenodd;stroke-linejoin:round;stroke-miterlimit:2;">
    <g>
        <rect x="886.966" y="1110.67" width="12.962" height="131.278" style="fill-rule:nonzero;"/>
        <path d="M848.547,1241.95C861.028,1241.95 871.064,1230.75 871.064,1216.85L871.064,1135.77C871.064,1121.87 861.028,1110.66 848.547,1110.66L841.284,1110.66C828.802,1110.66 818.754,1121.87 818.754,1135.77L818.754,1216.85C818.754,1230.75 828.802,1241.95 841.284,1241.95L848.547,1241.95ZM844.796,1229.53C837.433,1229.53 831.499,1223.96 831.499,1217.03L831.499,1134.85C831.499,1127.91 837.433,1122.33 844.796,1122.33C852.172,1122.33 858.093,1127.91 858.093,1134.85L858.093,1217.03C858.093,1223.96 852.172,1229.53 844.796,1229.53Z" style="fill-rule:nonzero;"/>
        <rect x="33.365" y="58.049" width="12.962" height="131.278" style="fill-rule:nonzero;"/>
        <path d="M84.738,58.049C72.263,58.049 62.235,69.247 62.235,83.144L62.235,164.235C62.235,178.139 72.263,189.33 84.738,189.33L92.009,189.33C104.484,189.33 114.531,178.139 114.531,164.235L114.531,83.144C114.531,69.247 104.484,58.049 92.009,58.049L84.738,58.049ZM88.494,70.461C95.86,70.461 101.791,76.031 101.791,82.967L101.791,165.145C101.791,172.081 95.86,177.671 88.494,177.671C81.121,177.671 75.197,172.081 75.197,165.145L75.197,82.967C75.197,76.031 81.121,70.461 88.494,70.461Z" style="fill-rule:nonzero;"/>
        <path d="M222.15,285.895C222.192,277.453 215.525,277.295 215.609,283.453C215.025,314.408 188.859,329.649 169.859,326.033C140.525,320.458 131.192,291.358 131.442,274.22C132.317,221.316 185.567,182.308 233.609,114.491C268.817,175.703 326.942,223.783 330.4,271.099C334.942,334.008 255.359,357.47 243.984,284.149C243.234,278.97 237.15,276.645 237.609,283.878C239.359,303.974 236.9,312.345 259.567,361.878L200.317,361.878C213.442,338.733 221.234,310.316 222.15,285.895Z" style="fill-rule:nonzero;"/>
        <path d="M454.275,421.999C454.359,413.562 447.65,413.399 447.734,419.562C447.192,450.512 421.025,465.753 401.984,462.137C372.692,456.566 363.317,427.462 363.609,410.324C364.442,357.424 417.734,318.412 465.775,250.595C500.984,311.808 559.109,359.887 562.525,407.203C567.109,470.112 487.484,493.578 476.109,420.258C475.4,415.078 469.275,412.753 469.775,419.987C471.484,440.078 469.025,448.449 491.692,497.983L432.442,497.983C445.567,474.837 453.4,446.424 454.275,421.999Z" style="fill-rule:nonzero;"/>
        <path d="M686.859,285.895C686.9,277.453 680.234,277.295 680.317,283.453C679.734,314.408 653.567,329.649 634.567,326.033C605.234,320.458 595.9,291.358 596.15,274.22C597.025,221.316 650.275,182.308 698.317,114.491C733.567,175.703 791.65,223.783 795.109,271.099C799.692,334.008 720.067,357.47 708.692,284.149C707.984,278.97 701.859,276.645 702.317,283.878C704.067,303.974 701.609,312.345 724.275,361.878L665.025,361.878C678.15,338.733 685.942,310.316 686.859,285.895Z" style="fill-rule:nonzero;"/>
        <path d="M686.859,558.108C686.9,549.666 680.234,549.503 680.317,555.666C679.734,586.616 653.567,601.858 634.567,598.245C605.234,592.67 595.9,563.566 596.15,546.428C597.025,493.528 650.275,454.52 698.317,386.703C733.567,447.912 791.65,495.991 795.109,543.308C799.692,606.216 720.067,629.683 708.692,556.362C707.984,551.183 701.859,548.858 702.317,556.091C704.067,576.187 701.609,584.553 724.275,634.087L665.025,634.087C678.15,610.945 685.942,582.528 686.859,558.108Z" style="fill-rule:nonzero;"/>
        <path d="M222.15,558.108C222.192,549.666 215.525,549.503 215.609,555.666C215.025,586.616 188.859,601.858 169.859,598.245C140.525,592.67 131.192,563.566 131.442,546.428C132.317,493.528 185.567,454.52 233.609,386.703C268.817,447.912 326.942,495.991 330.4,543.308C334.942,606.216 255.359,629.683 243.984,556.362C243.234,551.183 237.15,548.858 237.609,556.091C239.359,576.187 236.9,584.553 259.567,634.087L200.317,634.087C213.442,610.945 221.234,582.528 222.15,558.108Z" style="fill-rule:nonzero;"/>
        <path d="M686.9,741.999C686.942,750.441 680.275,750.599 680.359,744.441C679.817,713.487 653.609,698.245 634.609,701.862C605.275,707.437 595.942,736.537 596.192,753.674C597.067,806.578 650.317,845.587 698.359,913.403C733.609,852.191 791.692,804.112 795.15,756.795C799.734,693.887 720.109,670.424 708.734,743.745C708.025,748.924 701.9,751.249 702.359,744.016C704.109,723.92 701.65,715.549 724.317,666.016L665.067,666.016C678.192,689.162 685.984,717.578 686.9,741.999Z" style="fill-rule:nonzero;"/>
        <path d="M686.9,1014.21C686.942,1022.65 680.275,1022.81 680.359,1016.65C679.817,985.699 653.609,970.458 634.609,974.074C605.275,979.645 595.942,1008.75 596.192,1025.89C597.067,1078.79 650.317,1117.8 698.359,1185.62C733.609,1124.4 791.692,1076.32 795.15,1029.01C799.734,966.099 720.109,942.633 708.734,1015.95C708.025,1021.13 701.9,1023.46 702.359,1016.22C704.109,996.133 701.65,987.762 724.317,938.228L665.067,938.228C678.192,961.374 685.984,989.787 686.9,1014.21Z" style="fill-rule:nonzero;"/>
        <path d="M456.275,878.103C456.359,886.545 449.65,886.708 449.734,880.545C449.192,849.591 422.984,834.353 403.984,837.966C374.65,843.541 365.317,872.641 365.609,889.783C366.442,942.683 419.692,981.691 467.775,1049.51C502.984,988.299 561.067,940.22 564.525,892.903C569.109,829.995 489.484,806.528 478.109,879.849C477.4,885.028 471.275,887.353 471.775,880.12C473.484,860.024 471.025,851.658 493.692,802.12L434.442,802.12C447.567,825.266 455.4,853.683 456.275,878.103Z" style="fill-rule:nonzero;"/>
        <path d="M222.192,741.999C222.234,750.441 215.567,750.599 215.65,744.441C215.067,713.487 188.9,698.245 169.9,701.862C140.567,707.437 131.234,736.537 131.484,753.674C132.359,806.578 185.609,845.587 233.65,913.403C268.859,852.191 326.984,804.112 330.442,756.795C334.984,693.887 255.4,670.424 244.025,743.745C243.275,748.924 237.192,751.249 237.65,744.016C239.4,723.92 236.942,715.549 259.609,666.016L200.359,666.016C213.484,689.162 221.275,717.578 222.192,741.999Z" style="fill-rule:nonzero;"/>
        <path d="M222.192,1014.21C222.234,1022.65 215.567,1022.81 215.65,1016.65C215.067,985.699 188.9,970.458 169.9,974.074C140.567,979.645 131.234,1008.75 131.484,1025.89C132.359,1078.79 185.609,1117.8 233.65,1185.62C268.859,1124.4 326.984,1076.32 330.442,1029.01C334.984,966.099 255.4,942.633 244.025,1015.95C243.275,1021.13 237.192,1023.46 237.65,1016.22C239.4,996.133 236.942,987.762 259.609,938.228L200.359,938.228C213.484,961.374 221.275,989.787 222.192,1014.21Z" style="fill-rule:nonzero;"/>
        <path d="M71.525,291.52C71.567,287.887 67.775,289.583 67.275,290.724C62.442,298.999 55.359,300.924 48.317,297.941C41.4,294.987 37.484,288.441 38.109,279.099C39.4,264.774 50.775,249.099 56.234,240.241C61.484,232.199 67.192,222.649 73.234,210.433C80.317,224.445 83.9,228.433 91.609,241.228C98.359,252.495 107.817,263.533 108.525,277.153C108.525,287.508 104.192,297.287 94.359,299.07C88.817,300.078 83.65,297.228 79.775,290.583C78.609,288.887 76.234,289.77 76.275,292.091C76.984,300.812 80.275,308.687 88.067,317.974L59.359,317.974C65.234,311.408 71.234,302.541 71.525,291.52Z" style="fill-rule:nonzero;"/>
        <path d="M858.234,1011.29C858.275,1014.92 854.525,1013.23 854.025,1012.08C849.15,1003.81 842.067,1001.89 835.067,1004.87C828.109,1007.82 824.192,1014.37 824.859,1023.71C826.15,1038.04 837.484,1053.71 842.984,1062.57C848.192,1070.61 853.942,1080.16 859.984,1092.38C867.025,1078.37 870.65,1074.38 878.317,1061.58C885.109,1050.31 894.525,1039.28 895.275,1025.65C895.275,1015.3 890.9,1005.52 881.109,1003.74C875.567,1002.73 870.359,1005.58 866.525,1012.23C865.317,1013.92 862.984,1013.04 863.025,1010.72C863.692,1002 866.984,994.124 874.817,984.837L846.109,984.837C851.984,991.403 857.984,1000.27 858.234,1011.29Z" style="fill-rule:nonzero;"/>
    </g>
</svg>
